build/img/svg/htmlacademy.svg

<svg width="27" height="34" fill="none" xmlns="http://www.w3.org/2000/svg"><path d="M14 0L0 1v25l14 8 13-8V1L14 0zm11 12L14 5h-1L2 12V3l11-1 12 1v9zM13 7l12 6-5 3-7-4v1l6 4h-1l-5-3v2l4 2h-1l-3-1v1l2 1-2 1-11-6 11-7zM2 15l11 7v1l-8-5v2l8 4v1l-8-4v1l8 5 9-5v-5l3-2v10l-12 7-11-7V15z" fill="#000"/></svg>

<svg width="27" height="34" viewBox="0 0 27 34" fill="none" xmlns="http://www.w3.org/2000/svg">
<path d="M14 0L0 1V26L14 34L27 26V1L14 0ZM25 12L14 5H13L2 12V3L13 2L25 3V12ZM13 7L25 13L20 16L13 12V13L19 17H18L13 14V16L17 18H16L13 17V18L15 19L13 20L2 14L13 7ZM2 15L13 22V23L5 18V20L13 24V25L5 21V22L13 27L22 22V17L25 15V25L13 32L2 25V15Z" fill="black"/>
</svg>
